modules/feathericon/icons/step-forward.svg

<svg width="12" height="12" viewBox="0 0 12 12" xmlns="http://www.w3.org/2000/svg"><path d="M5 10V4H3l3-4 3 4H7v6h5v2H0v-2h5zM0 6h4v2H0V6zm8 0h4v2H8V6z" fill="#000" fill-rule="evenodd"/></svg>

<?xml version="1.0" encoding="UTF-8"?>
<svg width="12px" height="12px" viewBox="0 0 12 12" version="1.1" xmlns="http://www.w3.org/2000/svg" xmlns:xlink="http://www.w3.org/1999/xlink">
    <!-- Generator: sketchtool 48.1 (47250) - http://www.bohemiancoding.com/sketch -->
    <title>step-forward</title>
    <desc>Created with sketchtool.</desc>
    <defs></defs>
    <g id="production" stroke="none" stroke-width="1" fill="none" fill-rule="evenodd">
        <g id="step-forward" fill="#000000">
            <path d="M5,10 L5,4.00083249 L3,4.00083249 L6,0 L9,4.00083249 L7,4.00083249 L7,10 L12,10 L12,12 L0,12 L0,10 L5,10 Z M0,6 L4,6 L4,8 L0,8 L0,6 Z M8,6 L12,6 L12,8 L8,8 L8,6 Z" id="Shape"></path>
        </g>
    </g>
</svg>
